!!!COM: Music21
!!!OTL: march_Steel--The
!!!OMV: march_Steel--The
**kern
*clefG2
*k[f#c#]
*M4/4
=1
8bL
8gJ
8eL
8gJ
4.f#
8e
=
8bL
8gJ
8eL
8gJ
8gL
8f#J
8eL
8dJ
=
8bL
8gJ
8eL
8gJ
4.f#
8e
=
4.d
8f#
8aL
8f#J
8dL
8f#J
=||
*M4/4
8bL
8gJ
8eL
8gJ
4.f#
8e
!!linebreak:original
=
8bL
8gJ
8eL
8gJ
8gL
8f#J
8eL
8dJ
=
8bL
8gJ
8eL
8gJ
4.f#
8e
=
4.d
8f#
8aL
8f#J
8dL
8f#J
=||
8eL
8gJ
8bL
8eeJ
4.dd
8b
=
8eL
8gJ
8bL
8eeJ
8ddL
8bJ
8aL
8f#J
!!linebreak:original
=
8eL
8gJ
8bL
8eeJ
4.dd
8b
=
8a
4.f#
8bL
8f#J
8aL
8f#J
=
8eL
8gJ
8bL
8eeJ
4.dd
8b
=
8eeL
8bJ
8eeL
8ff#J
8ggL
8ff#J
8eeL
8cc#J
=
8ddL
8aJ
8bL
8gJ
8aL
8f#J
8gL
8eJ
!!linebreak:original
=
4.f#
8f#
8f#L
8eJ
8dL
8f#J
=||
8eL
8gJ
8bL
8eeJ
4.dd
8b
=
8eL
8gJ
8bL
8eeJ
8ddL
8bJ
8aL
8f#J
=
8eL
8gJ
8bL
8eeJ
4.dd
8b
=
8a
4.f#
8bL
8f#J
8aL
8f#J
=
8eL
8gJ
8bL
8eeJ
4.dd
8b
!!linebreak:original
=
8eeL
8bJ
8eeL
8ff#J
8ggL
8ff#J
8eeL
8cc#J
=
8ddL
8aJ
8bL
8gJ
8aL
8f#J
8gL
8eJ
=
4.f#
8f#
8f#L
8eJ
8dL
8f#J
=||
*-
